; G-Code generated by Simplify3D(R) Version 4.1.2
; Dec 26, 2019 at 1:51:11 PM
; Settings Summary
;   processName,Process1
;   applyToModels,Car Trash Can Brace v1
;   profileName,Radar Mount Strong (modified)
;   profileVersion,2019-11-03 20:37:30
;   baseProfile,Wanhao Duplicator i3 (modified)
;   printMaterial,PLA
;   printQuality,Fast
;   printExtruders,
;   extruderName,Primary Extruder
;   extruderToolheadNumber,0
;   extruderDiameter,0.4
;   extruderAutoWidth,0
;   extruderWidth,0.4
;   extrusionMultiplier,1
;   extruderUseRetract,1
;   extruderRetractionDistance,4.5
;   extruderExtraRestartDistance,0
;   extruderRetractionZLift,0
;   extruderRetractionSpeed,2400
;   extruderUseCoasting,1
;   extruderCoastingDistance,0.02
;   extruderUseWipe,0
;   extruderWipeDistance,3
;   primaryExtruder,0
;   layerHeight,0.2
;   topSolidLayers,6
;   bottomSolidLayers,6
;   perimeterOutlines,6
;   printPerimetersInsideOut,1
;   startPointOption,3
;   startPointOriginX,0
;   startPointOriginY,210
;   sequentialIslands,0
;   spiralVaseMode,0
;   firstLayerHeightPercentage,100
;   firstLayerWidthPercentage,100
;   firstLayerUnderspeed,0.3
;   useRaft,0
;   raftExtruder,0
;   raftTopLayers,3
;   raftBaseLayers,2
;   raftOffset,3
;   raftSeparationDistance,0.14
;   raftTopInfill,100
;   aboveRaftSpeedMultiplier,0.3
;   useSkirt,1
;   skirtExtruder,0
;   skirtLayers,1
;   skirtOutlines,3
;   skirtOffset,5
;   usePrimePillar,0
;   primePillarExtruder,999
;   primePillarWidth,12
;   primePillarLocation,7
;   primePillarSpeedMultiplier,1
;   useOozeShield,0
;   oozeShieldExtruder,999
;   oozeShieldOffset,2
;   oozeShieldOutlines,1
;   oozeShieldSidewallShape,1
;   oozeShieldSidewallAngle,30
;   oozeShieldSpeedMultiplier,1
;   infillExtruder,0
;   internalInfillPattern,Rectilinear
;   externalInfillPattern,Rectilinear
;   infillPercentage,100
;   outlineOverlapPercentage,20
;   infillExtrusionWidthPercentage,105
;   minInfillLength,0.6
;   infillLayerInterval,1
;   internalInfillAngles,45,-45
;   overlapInternalInfillAngles,0
;   externalInfillAngles,45,-45
;   generateSupport,0
;   supportExtruder,0
;   supportInfillPercentage,8
;   supportExtraInflation,0.44
;   supportBaseLayers,3
;   denseSupportExtruder,0
;   denseSupportLayers,3
;   denseSupportInfillPercentage,70
;   supportLayerInterval,1
;   supportHorizontalPartOffset,0.54
;   supportUpperSeparationLayers,1
;   supportLowerSeparationLayers,1
;   supportType,0
;   supportGridSpacing,2
;   maxOverhangAngle,45
;   supportAngles,45,-45,0
;   temperatureName,Primary Extruder,Heated Bed
;   temperatureNumber,0,0
;   temperatureSetpointCount,1,1
;   temperatureSetpointLayers,1,1
;   temperatureSetpointTemperatures,210,60
;   temperatureStabilizeAtStartup,1,1
;   temperatureHeatedBed,0,1
;   fanLayers,1,3,6,9
;   fanSpeeds,0,30,60,100
;   blipFanToFullPower,1
;   adjustSpeedForCooling,1
;   minSpeedLayerTime,15
;   minCoolingSpeedSlowdown,20
;   increaseFanForCooling,0
;   minFanLayerTime,20
;   maxCoolingFanSpeed,100
;   increaseFanForBridging,1
;   bridgingFanSpeed,100
;   use5D,1
;   relativeEdistances,0
;   allowEaxisZeroing,1
;   independentExtruderAxes,0
;   includeM10123,0
;   stickySupport,1
;   applyToolheadOffsets,0
;   gcodeXoffset,0
;   gcodeYoffset,0
;   gcodeZoffset,0
;   overrideMachineDefinition,1
;   machineTypeOverride,0
;   strokeXoverride,220
;   strokeYoverride,210
;   strokeZoverride,250
;   originOffsetXoverride,0
;   originOffsetYoverride,0
;   originOffsetZoverride,0
;   homeXdirOverride,-1
;   homeYdirOverride,-1
;   homeZdirOverride,-1
;   flipXoverride,1
;   flipYoverride,-1
;   flipZoverride,1
;   toolheadOffsets,0,0|0,0|0,0|0,0|0,0|0,0
;   overrideFirmwareConfiguration,1
;   firmwareTypeOverride,RepRap (Marlin/Repetier/Sprinter)
;   GPXconfigOverride,r2
;   baudRateOverride,115200
;   overridePrinterModels,1
;   printerModelsOverride
;   startingGcode,G28  ;  home  all  axes,M204 P500 T1500,M205 X8 Y8 ; set jerk x/y=8,M117 Print Starting...,M75 ; Start Print Timer and Engage Fil Sensor if USB Printing,M84 E ; Disable E Motor for probe accuracy on direct drive systems,M117 Antiblob retract...,G92 E0 ; Reset Extruder distance to 0,G1 E-2 ; Retracts filament to prevent blobs during probing,G92 E0 ; Reset Extruder distance to 0,M117 Homing All...,G28 ; home all axes,M117 Homing Z Probe...,G28 Z ; home z again,M117 Generating mesh...,G29; auto bed leveling,M117 Heaters Recovering...,G4 S10; wait for heaters to recover,M420 Z0; Z fade,M900 K0; LA,,M117 Purging extruder...,G92 E0     ; reset extruder,G1 Z1.0 F3000    ; move z up little to prevent scratching of surface,G1 X0.1 Y20 Z0.3 F5000.0  ; move to start-line position,G1 X0.1 Y100.0 Z0.3 F500.0 E15  ; draw 1st line,G1 X0.4 Y100.0 Z0.3 F5000.0  ; move to side a little,G1 X0.4 Y20 Z0.3 F500.0 E30  ; draw 2nd line,G92 E0     ; reset extruder,G1 Z1.0 F3000    ; move z up little to prevent scratching of surface,,M117 Printing.....,,,,,,
;   layerChangeGcode,
;   retractionGcode,
;   toolChangeGcode,
;   endingGcode,G91 ;uses logical positioning,G0 Z10 F180 ; go up 10mm to clear the print,G90 ; return back to normal absolute position,G0 X220 Y220 F2700; bring the print bed forward to present the masterpiece,,G92 E0; Null out extruder,G1 E-10 F600; retract,G92 E0; Null Out extruder,,M84; disable motors,M104 S0 ;turn off hotend,M140 S0 ;turn off heated bed,M107;disable fan
;   exportFileFormat,gcode
;   celebration,0
;   celebrationSong,Star Wars
;   postProcessing,
;   defaultSpeed,2400
;   outlineUnderspeed,0.5
;   solidInfillUnderspeed,0.8
;   supportUnderspeed,0.8
;   rapidXYspeed,7200
;   rapidZspeed,1002
;   minBridgingArea,40
;   bridgingExtraInflation,0
;   bridgingExtrusionMultiplier,1
;   bridgingSpeedMultiplier,1
;   useFixedBridgingAngle,0
;   fixedBridgingAngle,0
;   applyBridgingToPerimeters,0
;   filamentDiameters,1.749|1.73|1.73|1.73|1.73|1.73
;   filamentPricesPerKg,18|18|18|18|18|18
;   filamentDensities,1.25|1.25|1.25|1.25|1.25|1.25
;   useMinPrintHeight,0
;   minPrintHeight,63.5
;   useMaxPrintHeight,0
;   maxPrintHeight,26.7
;   useDiaphragm,0
;   diaphragmLayerInterval,20
;   robustSlicing,1
;   mergeAllIntoSolid,0
;   onlyRetractWhenCrossingOutline,1
;   retractBetweenLayers,1
;   useRetractionMinTravel,1
;   retractionMinTravel,2.5
;   retractWhileWiping,1
;   onlyWipeOutlines,1
;   avoidCrossingOutline,1
;   maxMovementDetourFactor,4
;   toolChangeRetractionDistance,12
;   toolChangeExtraRestartDistance,-0.5
;   toolChangeRetractionSpeed,600
;   externalThinWallType,1
;   internalThinWallType,1
;   thinWallAllowedOverlapPercentage,15
;   singleExtrusionMinLength,1
;   singleExtrusionMinPrintingWidthPercentage,50
;   singleExtrusionMaxPrintingWidthPercentage,200
;   singleExtrusionEndpointExtension,0.2
;   horizontalSizeCompensation,0
G90
M82
M106 S0
M140 S60
M190 S60
M104 S210 T0
M109 S210 T0
G28  ;  home  all  axes
M204 P500 T1500
M205 X8 Y8 ; set jerk x/y=8
M117 Print Starting...
M75 ; Start Print Timer and Engage Fil Sensor if USB Printing
M84 E ; Disable E Motor for probe accuracy on direct drive systems
M117 Antiblob retract...
G92 E0 ; Reset Extruder distance to 0
G1 E-2 ; Retracts filament to prevent blobs during probing
G92 E0 ; Reset Extruder distance to 0
M117 Homing All...
G28 ; home all axes
M117 Homing Z Probe...
G28 Z ; home z again
M117 Generating mesh...
G29; auto bed leveling
M117 Heaters Recovering...
G4 S10; wait for heaters to recover
M420 Z0; Z fade
M900 K0; LA
M117 Purging extruder...
G92 E0     ; reset extruder
G1 Z1.0 F3000    ; move z up little to prevent scratching of surface
G1 X0.1 Y20 Z0.3 F5000.0  ; move to start-line position
G1 X0.1 Y100.0 Z0.3 F500.0 E15  ; draw 1st line
G1 X0.4 Y100.0 Z0.3 F5000.0  ; move to side a little
G1 X0.4 Y20 Z0.3 F500.0 E30  ; draw 2nd line
G92 E0     ; reset extruder
G1 Z1.0 F3000    ; move z up little to prevent scratching of surface
M117 Printing.....
; process Process1
; layer 1, Z = 0.200
T0
G92 E0.0000
G1 E-4.5000 F2400
; feature skirt
; tool H0.200 W0.400
G1 Z0.200 F1002
G1 X11.920 Y188.819 F7200
G1 E0.0000 F2400
G92 E0.0000
G1 X11.580 Y188.622 E0.0131 F720
G1 X10.563 Y187.942 E0.0538
G1 X10.251 Y187.703 E0.0669
G1 X9.331 Y186.897 E0.1076
G1 X9.053 Y186.619 E0.1207
G1 X8.247 Y185.699 E0.1615
G1 X8.007 Y185.387 E0.1745
G1 X7.328 Y184.370 E0.2153
G1 X7.131 Y184.030 E0.2284
G1 X6.590 Y182.933 E0.2691
G1 X6.440 Y182.570 E0.2822
G1 X6.047 Y181.411 E0.3229
G1 X5.945 Y181.032 E0.3360
G1 X5.706 Y179.832 E0.3767
G1 X5.655 Y179.442 E0.3898
G1 X5.581 Y178.319 E0.4273
G1 X5.575 Y178.123 E0.4338
G1 X5.575 Y31.877 E5.3036
G1 X5.581 Y31.681 E5.3101
G1 X5.655 Y30.558 E5.3476
G1 X5.706 Y30.168 E5.3607
G1 X5.945 Y28.968 E5.4014
G1 X6.047 Y28.589 E5.4145
G1 X6.440 Y27.430 E5.4552
G1 X6.590 Y27.067 E5.4683
G1 X7.131 Y25.970 E5.5090
G1 X7.328 Y25.630 E5.5221
G1 X8.008 Y24.613 E5.5629
G1 X8.247 Y24.301 E5.5759
G1 X9.053 Y23.381 E5.6167
G1 X9.331 Y23.103 E5.6297
G1 X10.251 Y22.297 E5.6705
G1 X10.563 Y22.058 E5.6836
G1 X11.585 Y21.374 E5.7245
G1 X11.936 Y21.173 E5.7380
G1 X13.059 Y20.625 E5.7796
G1 X13.411 Y20.480 E5.7923
G1 X14.539 Y20.097 E5.8319
G1 X14.918 Y19.995 E5.8450
G1 X16.118 Y19.756 E5.8858
G1 X16.508 Y19.705 E5.8988
G1 X17.631 Y19.631 E5.9363
G1 X17.827 Y19.625 E5.9428
G1 X202.173 Y19.625 E12.0812
G1 X202.369 Y19.631 E12.0878
G1 X203.492 Y19.705 E12.1253
G1 X203.882 Y19.756 E12.1383
G1 X205.082 Y19.995 E12.1791
G1 X205.461 Y20.097 E12.1922
G1 X206.620 Y20.490 E12.2329
G1 X206.983 Y20.640 E12.2460
G1 X208.080 Y21.181 E12.2867
G1 X208.420 Y21.378 E12.2998
G1 X209.437 Y22.058 E12.3405
G1 X209.749 Y22.297 E12.3536
G1 X210.669 Y23.103 E12.3944
G1 X210.947 Y23.381 E12.4074
G1 X211.753 Y24.301 E12.4482
G1 X211.992 Y24.613 E12.4613
G1 X212.672 Y25.630 E12.5020
G1 X212.869 Y25.970 E12.5151
G1 X213.410 Y27.067 E12.5558
G1 X213.560 Y27.430 E12.5689
G1 X213.953 Y28.589 E12.6096
G1 X214.055 Y28.968 E12.6227
G1 X214.294 Y30.168 E12.6635
G1 X214.345 Y30.558 E12.6765
G1 X214.419 Y31.680 E12.7140
G1 X214.425 Y31.877 E12.7205
G1 X214.425 Y178.123 E17.5903
G1 X214.419 Y178.320 E17.5968
G1 X214.345 Y179.442 E17.6343
G1 X214.294 Y179.832 E17.6474
G1 X214.055 Y181.032 E17.6881
G1 X213.953 Y181.411 E17.7012
G1 X213.560 Y182.570 E17.7419
G1 X213.410 Y182.933 E17.7550
G1 X212.869 Y184.030 E17.7957
G1 X212.672 Y184.370 E17.8088
G1 X211.992 Y185.387 E17.8496
G1 X211.753 Y185.699 E17.8626
G1 X210.947 Y186.619 E17.9034
G1 X210.669 Y186.897 E17.9165
G1 X209.749 Y187.703 E17.9572
G1 X209.437 Y187.942 E17.9703
G1 X208.420 Y188.622 E18.0110
G1 X208.080 Y188.819 E18.0241
G1 X206.983 Y189.360 E18.0648
G1 X206.620 Y189.510 E18.0779
G1 X205.461 Y189.903 E18.1187
G1 X205.082 Y190.005 E18.1317
G1 X203.882 Y190.244 E18.1725
G1 X203.492 Y190.295 E18.1856
G1 X202.369 Y190.369 E18.2230
G1 X202.173 Y190.375 E18.2296
G1 X17.827 Y190.375 E24.3680
G1 X17.631 Y190.369 E24.3745
G1 X16.508 Y190.295 E24.4120
G1 X16.118 Y190.244 E24.4251
G1 X14.918 Y190.005 E24.4658
G1 X14.539 Y189.903 E24.4789
G1 X13.380 Y189.510 E24.5196
G1 X13.017 Y189.360 E24.5327
G1 X11.920 Y188.819 E24.5734
G1 X12.109 Y188.466 F7200
G92 E0.0000
G1 X11.791 Y188.282 E0.0122 F720
G1 X10.796 Y187.617 E0.0521
G1 X10.505 Y187.394 E0.0643
G1 X9.605 Y186.605 E0.1041
G1 X9.345 Y186.345 E0.1164
G1 X8.556 Y185.445 E0.1562
G1 X8.333 Y185.154 E0.1684
G1 X7.668 Y184.159 E0.2083
G1 X7.484 Y183.841 E0.2205
G1 X6.955 Y182.767 E0.2604
G1 X6.814 Y182.429 E0.2726
G1 X6.430 Y181.295 E0.3125
G1 X6.335 Y180.941 E0.3247
G1 X6.101 Y179.767 E0.3645
G1 X6.053 Y179.403 E0.3767
G1 X5.981 Y178.300 E0.4136
G1 X5.975 Y178.117 E0.4197
G1 X5.975 Y31.883 E5.2890
G1 X5.981 Y31.700 E5.2951
G1 X6.053 Y30.597 E5.3319
G1 X6.101 Y30.233 E5.3441
G1 X6.335 Y29.059 E5.3839
G1 X6.430 Y28.705 E5.3962
G1 X6.814 Y27.571 E5.4360
G1 X6.955 Y27.233 E5.4482
G1 X7.484 Y26.159 E5.4881
G1 X7.668 Y25.841 E5.5003
G1 X8.333 Y24.846 E5.5402
G1 X8.556 Y24.555 E5.5524
G1 X9.345 Y23.655 E5.5923
G1 X9.605 Y23.395 E5.6045
G1 X10.505 Y22.606 E5.6443
G1 X10.796 Y22.383 E5.6565
G1 X11.796 Y21.715 E5.6966
G1 X12.123 Y21.526 E5.7092
G1 X13.223 Y20.990 E5.7499
G1 X13.551 Y20.854 E5.7617
G1 X14.655 Y20.480 E5.8005
G1 X15.009 Y20.385 E5.8128
G1 X16.183 Y20.151 E5.8526
G1 X16.547 Y20.103 E5.8648
G1 X17.650 Y20.031 E5.9016
G1 X17.833 Y20.025 E5.9077
G1 X202.167 Y20.025 E12.0457
G1 X202.350 Y20.031 E12.0518
G1 X203.453 Y20.103 E12.0886
G1 X203.817 Y20.151 E12.1008
G1 X204.991 Y20.385 E12.1407
G1 X205.345 Y20.480 E12.1529
G1 X206.479 Y20.864 E12.1928
G1 X206.817 Y21.005 E12.2050
G1 X207.891 Y21.534 E12.2449
G1 X208.209 Y21.718 E12.2571
G1 X209.204 Y22.383 E12.2969
G1 X209.495 Y22.606 E12.3091
G1 X210.395 Y23.395 E12.3490
G1 X210.655 Y23.655 E12.3612
G1 X211.444 Y24.555 E12.4011
G1 X211.667 Y24.846 E12.4133
G1 X212.332 Y25.841 E12.4532
G1 X212.516 Y26.159 E12.4654
G1 X213.045 Y27.233 E12.5052
G1 X213.185 Y27.571 E12.5174
G1 X213.570 Y28.705 E12.5573
G1 X213.665 Y29.059 E12.5695
G1 X213.899 Y30.233 E12.6094
G1 X213.947 Y30.597 E12.6216
G1 X214.019 Y31.700 E12.6584
G1 X214.025 Y31.883 E12.6645
G1 X214.025 Y178.117 E17.5338
G1 X214.019 Y178.300 E17.5399
G1 X213.947 Y179.403 E17.5767
G1 X213.899 Y179.766 E17.5889
G1 X213.665 Y180.941 E17.6288
G1 X213.570 Y181.295 E17.6410
G1 X213.185 Y182.429 E17.6809
G1 X213.045 Y182.767 E17.6931
G1 X212.516 Y183.841 E17.7330
G1 X212.332 Y184.159 E17.7452
G1 X211.667 Y185.154 E17.7850
G1 X211.444 Y185.445 E17.7972
G1 X210.655 Y186.345 E17.8371
G1 X210.395 Y186.605 E17.8493
G1 X209.495 Y187.394 E17.8892
G1 X209.204 Y187.617 E17.9014
G1 X208.209 Y188.282 E17.9413
G1 X207.891 Y188.466 E17.9535
G1 X206.817 Y188.995 E17.9933
G1 X206.479 Y189.136 E18.0055
G1 X205.345 Y189.520 E18.0454
G1 X204.991 Y189.615 E18.0576
G1 X203.817 Y189.849 E18.0975
G1 X203.453 Y189.897 E18.1097
G1 X202.350 Y189.969 E18.1465
G1 X202.167 Y189.975 E18.1526
G1 X17.833 Y189.975 E24.2906
G1 X17.650 Y189.969 E24.2967
G1 X16.547 Y189.897 E24.3335
G1 X16.183 Y189.849 E24.3457
G1 X15.009 Y189.615 E24.3856
G1 X14.655 Y189.520 E24.3978
G1 X13.521 Y189.136 E24.4376
G1 X13.183 Y188.995 E24.4499
G1 X12.109 Y188.466 E24.4897
G1 X12.297 Y188.113 F7200
G92 E0.0000
G1 X12.003 Y187.942 E0.0113 F720
G1 X11.029 Y187.292 E0.0503
G1 X10.759 Y187.085 E0.0617
G1 X9.878 Y186.312 E0.1007
G1 X9.638 Y186.072 E0.1120
G1 X8.865 Y185.191 E0.1510
G1 X8.658 Y184.921 E0.1623
G1 X8.007 Y183.947 E0.2013
G1 X7.837 Y183.653 E0.2127
G1 X7.319 Y182.602 E0.2517
G1 X7.189 Y182.288 E0.2630
G1 X6.813 Y181.179 E0.3020
G1 X6.724 Y180.850 E0.3133
G1 X6.496 Y179.701 E0.3523
G1 X6.452 Y179.364 E0.3637
G1 X6.381 Y178.280 E0.3998
G1 X6.375 Y178.110 E0.4055
G1 X6.375 Y31.890 E5.2744
G1 X6.381 Y31.720 E5.2800
G1 X6.452 Y30.636 E5.3162
G1 X6.496 Y30.299 E5.3275
G1 X6.724 Y29.150 E5.3665
G1 X6.813 Y28.821 E5.3778
G1 X7.189 Y27.712 E5.4168
G1 X7.319 Y27.398 E5.4282
G1 X7.837 Y26.347 E5.4672
G1 X8.008 Y26.053 E5.4785
G1 X8.658 Y25.079 E5.5175
G1 X8.865 Y24.809 E5.5288
G1 X9.638 Y23.928 E5.5678
G1 X9.878 Y23.688 E5.5792
G1 X10.759 Y22.915 E5.6182
G1 X11.029 Y22.708 E5.6295
G1 X12.007 Y22.055 E5.6687
G1 X12.311 Y21.880 E5.6804
G1 X13.387 Y21.355 E5.7202
G1 X13.692 Y21.229 E5.7312
G1 X14.771 Y20.863 E5.7692
G1 X15.100 Y20.774 E5.7805
G1 X16.249 Y20.546 E5.8195
G1 X16.586 Y20.502 E5.8308
G1 X17.670 Y20.431 E5.8670
G1 X17.840 Y20.425 E5.8726
G1 X202.160 Y20.425 E12.0102
G1 X202.330 Y20.431 E12.0158
G1 X203.414 Y20.502 E12.0520
G1 X203.751 Y20.546 E12.0633
G1 X204.900 Y20.774 E12.1023
G1 X205.229 Y20.863 E12.1137
G1 X206.338 Y21.239 E12.1527
G1 X206.652 Y21.369 E12.1640
G1 X207.703 Y21.887 E12.2030
G1 X207.997 Y22.058 E12.2143
G1 X208.971 Y22.708 E12.2533
G1 X209.241 Y22.915 E12.2647
G1 X210.122 Y23.688 E12.3037
G1 X210.362 Y23.928 E12.3150
G1 X211.135 Y24.809 E12.3540
G1 X211.342 Y25.079 E12.3653
G1 X211.992 Y26.053 E12.4043
G1 X212.163 Y26.347 E12.4157
G1 X212.681 Y27.398 E12.4547
G1 X212.811 Y27.712 E12.4660
G1 X213.187 Y28.821 E12.5050
G1 X213.276 Y29.150 E12.5163
G1 X213.504 Y30.299 E12.5553
G1 X213.548 Y30.636 E12.5667
G1 X213.619 Y31.720 E12.6028
G1 X213.625 Y31.890 E12.6085
G1 X213.625 Y178.110 E17.4773
